X:92
T:Reel 92
M:4/4
K:Gmaj
L:1/8
dc|BGAF DGG2| (3Bcd ef gedc|BGGB A2GB|cABG A2Bc|BGAG DGG2|Bdef g3a|bgaf gfed| (3efg dB A2|Bc|dBAB G2AG|FGAB ceec|BGAG FGAB|c2Bc d2dc|BGAF GFGB|dBec B2AB|dgfg ecAB|cAef gedc|
